icons/desktop/12/svg/audio-muted-smaller-12.svg

<svg width="12" height="12" viewBox="0 0 12 12" fill="none" xmlns="http://www.w3.org/2000/svg">
<path d="M4.05957 2.34918C4.59749 1.43331 5.99958 1.81488 6 2.87652V9.12164C6 10.1826 4.59757 10.565 4.05957 9.64898L3.01074 7.86187C2.93379 7.86389 2.84145 7.87359 2.76953 7.87359C2.4768 7.87357 2.20208 7.85852 1.94629 7.83355C1.40929 7.78055 1 7.33351 1 6.79351V5.20269C1.00015 4.67682 1.39214 4.22052 1.91504 4.16753C2.22981 4.13556 2.51667 4.12458 2.76953 4.12457C2.85546 4.12457 2.92588 4.1362 3.00879 4.13921L4.05957 2.34918Z" fill="black"/>
<path d="M10.1465 4.14703C10.3414 3.95231 10.6576 3.95231 10.8525 4.14703C11.0475 4.34203 11.0475 4.65906 10.8525 4.85406L9.70605 6.00054L10.8525 7.14703C11.0475 7.34203 11.0475 7.65906 10.8525 7.85406C10.7546 7.95187 10.6269 7.99859 10.499 7.99859C10.3715 7.99834 10.2442 7.95062 10.1465 7.85406L8.99902 6.7066L7.85254 7.85406C7.75458 7.95187 7.62788 7.99957 7.5 7.99957C7.37213 7.99956 7.24445 7.95087 7.14648 7.85406C6.95148 7.65906 6.95148 7.34203 7.14648 7.14703L8.29297 6.00054L7.14648 4.85406C6.95148 4.65906 6.95148 4.34203 7.14648 4.14703C7.34143 3.95231 7.65759 3.95231 7.85254 4.14703L8.99902 5.29351L10.1465 4.14703Z" fill="black"/>
</svg>

<!-- This Source Code Form is subject to the terms of the Mozilla Public
   - License, v. 2.0. If a copy of the MPL was not distributed with this
   - file, You can obtain one at http://mozilla.org/MPL/2.0/. -->
<svg xmlns="http://www.w3.org/2000/svg" width="12" height="12" fill="context-fill" fill-opacity="context-fill-opacity" viewBox="0 0 12 12">
    <path d="M4.06 2.35C4.597 1.432 6 1.814 6 2.876v6.245c0 1.06-1.402 1.443-1.94.527L3.01 7.862c-.076.002-.169.012-.24.012q-.44-.001-.824-.04A1.045 1.045 0 0 1 1 6.794V5.203c0-.526.392-.982.915-1.035.315-.032.602-.043.855-.043.085 0 .156.011.239.014zM10.147 4.147a.5.5 0 0 1 .705.707L9.706 6.001l1.146 1.146a.5.5 0 0 1-.706.707L9 6.707 7.853 7.854a.502.502 0 0 1-.706 0 .5.5 0 0 1 0-.707l1.146-1.146-1.147-1.147a.5.5 0 0 1 .707-.707l1.146 1.147z" />
</svg>
